common/resources/fonts/svg/data-document.svg

<?xml version="1.0" encoding="UTF-8"?>
<svg width="1024px" height="1024px" viewBox="0 0 1024 1024" version="1.1" xmlns="http://www.w3.org/2000/svg" xmlns:xlink="http://www.w3.org/1999/xlink">
    <!-- Generator: Sketch 47.1 (45422) - http://www.bohemiancoding.com/sketch -->
    <title>data-document</title>
    <desc>Created with Sketch.</desc>
    <defs></defs>
    <g id="Page-1" stroke="none" stroke-width="1" fill="none" fill-rule="evenodd">
        <g id="data-document">
            <path d="M339.09588,271.012473 L339.09588,798.501523 L747.488277,798.501523 L900.686475,798.501523 L900.686475,286.415153 L732.581955,112.713009 L339.09588,112.713009 L339.09588,271.012473 Z M390.14493,165.461914 L696.439228,165.461914 L696.439228,323.761378 L849.586376,323.761378 L849.586376,745.752618 L390.14493,745.752618 L390.14493,165.461914 L390.14493,165.461914 Z M747.488277,202.75539 L813.494698,271.012473 L747.488277,271.012473 L747.488277,202.75539 L747.488277,202.75539 Z" id="Shape" fill="#000000"></path>
            <rect id="Rectangle" fill="#FFFFFF" x="328.582138" y="517.295411" width="238.115074" height="312.526034"></rect>
            <path d="M157.546735,623.079385 C172.016082,634.582311 190.561301,644.551514 212.112476,652.680248 C249.05007,666.586008 294.801737,674.868114 344.52738,674.868114 C394.253023,674.868114 440.00469,666.534884 476.942283,652.680248 C498.544407,644.551514 517.038678,634.531187 531.508025,623.079385 C542.971416,613.979292 551.836438,604.061214 557.644556,593.478522 C562.841293,584.071685 565.847249,574.153606 565.847249,563.877659 C565.898198,502.52872 466.854499,452.784955 344.578328,452.784955 C222.302157,452.784955 123.20751,502.52872 123.20751,563.826535 C123.20751,574.102482 126.213466,584.02056 131.410203,593.427398 C137.26927,604.01009 146.134292,613.979292 157.546735,623.079385 L157.546735,623.079385 Z M531.558973,682.281111 C517.089626,693.784037 498.544407,703.75324 476.993232,711.881974 C440.055638,725.787734 394.303971,734.069841 344.578328,734.069841 C294.852685,734.069841 249.101018,725.73661 212.163425,711.881974 C190.561301,703.75324 172.06703,693.732913 157.597683,682.281111 C146.134292,673.181019 137.26927,663.26294 131.461152,652.680248 C126.264414,662.087085 123.258459,672.005164 123.258459,682.281111 C123.258459,692.557059 126.264414,702.475137 131.461152,711.881974 C137.26927,722.464666 146.134292,732.433869 157.597683,741.482838 C196.827955,772.5663 265.812095,793.322691 344.578328,793.322691 C423.39551,793.322691 492.328701,772.5663 531.558973,741.482838 C543.022364,732.382745 551.836438,722.464666 557.695504,711.881974 C562.892242,702.475137 565.898198,692.557059 565.898198,682.281111 C565.898198,672.005164 562.892242,662.087085 557.695504,652.680248 C551.836438,663.26294 542.971416,673.232143 531.558973,682.281111 L531.558973,682.281111 Z M344.578328,852.575541 C242.783416,852.575541 157.291993,818.066763 131.461152,771.134825 C126.264414,780.541662 123.258459,790.459741 123.258459,800.735688 C123.258459,862.033503 222.353106,911.777268 344.629277,911.777268 C466.905448,911.777268 566.000094,862.033503 566.000094,800.735688 C566.000094,790.459741 562.994139,780.541662 557.797401,771.134825 C531.813715,818.066763 446.322292,852.575541 344.578328,852.575541 L344.578328,852.575541 Z" id="Shape" fill="#000000"></path>
        </g>
    </g>
</svg>

<svg width="1024" height="1024" viewBox="0 0 1024 1024">
    <g fill="none" fill-rule="evenodd">
        <path d="M339.096 271.012v527.49h561.59V286.415L732.582 112.713H339.096v158.3zm51.049-105.55h306.294v158.3h153.147v421.99H390.145v-580.29zm357.343 37.293l66.007 68.257h-66.007v-68.257z" fill="#000"/>
        <path fill="#FFF" d="M328.582 517.295h238.115v312.526H328.582z"/>
        <path d="M157.547 623.08c14.47 11.502 33.014 21.472 54.565 29.6 36.938 13.906 82.69 22.188 132.415 22.188 49.726 0 95.478-8.333 132.415-22.188 21.602-8.128 40.097-18.149 54.566-29.6 11.463-9.1 20.328-19.019 26.137-29.601 5.196-9.407 8.202-19.325 8.202-29.601.051-61.35-98.993-111.093-221.269-111.093-122.276 0-221.37 49.744-221.37 111.042 0 10.275 3.005 20.194 8.202 29.6 5.86 10.583 14.724 20.552 26.137 29.652zm374.012 59.201c-14.47 11.503-33.015 21.472-54.566 29.601-36.937 13.906-82.689 22.188-132.415 22.188-49.725 0-95.477-8.333-132.415-22.188-21.602-8.129-40.096-18.15-54.565-29.6-11.464-9.101-20.329-19.02-26.137-29.602-5.197 9.407-8.203 19.325-8.203 29.601s3.006 20.194 8.203 29.601c5.808 10.583 14.673 20.552 26.137 29.6 39.23 31.084 108.214 51.84 186.98 51.84 78.818 0 147.75-20.756 186.981-51.84 11.463-9.1 20.277-19.017 26.137-29.6 5.196-9.407 8.202-19.325 8.202-29.6 0-10.277-3.006-20.195-8.202-29.602-5.86 10.583-14.725 20.552-26.137 29.601zm-186.98 170.295c-101.796 0-187.287-34.51-213.118-81.441-5.197 9.407-8.203 19.325-8.203 29.6 0 61.299 99.095 111.042 221.371 111.042C466.905 911.777 566 862.034 566 800.736c0-10.276-3.006-20.194-8.203-29.601-25.983 46.932-111.475 81.44-213.219 81.44z" fill="#000"/>
    </g>
</svg>
